X:405
T: Gullane
S: "Johnny O'Leary of Sliabh Luachra" (#107)
Z: B.Black
L: 1/8
M: 12/8
Q: 360
R: slide
K: D
A2G|: F2A ABA G/A/GB BAG|F2A ABc d2d c2d|
FAF AFA GBG BGB|1 e2d cBA d3 d2G :|2\
e2d cBA d3 d2||
e|f3 fef g2g f2g|e2d cBA Bee ede|
faf fef g2g faf|e2d cBA d3 d2 :|

